X:1
T:São Tomé, 86.86.86 D
T:São Tomé, 86.86.86 D
T:John Harrison Tenney, 1878
T:Public Domain Courtesy of the Cyber Hymnal™
C:John Harrison Tenney, 1878
Z:Public Domain
Z:Courtesy of the Cyber Hymnal™
%%score ( 1 2 ) ( 3 4 )
L:1/8
Q:1/4=96
M:4/4
K:Ab
V:1 treble 
V:2 treble 
V:3 bass 
V:4 bass 
V:1
 ([CA][DB]) | [Ec]3 [DB] [CA]>[EG] [DF]>[DA] | [CE]6 [CA]2 | [EB]3 [Ec] [EB]2 E2 | %4
 [Ec]6 ([CA][DB]) | [Ec]3 [DB] [CA]>[EG] [DF]>[DA] | [CE]6 ([CA][=DB]) | [Ec]3 [CA] [DB]2 [DB]2 | %8
 [CA]6 [Ec]2 | [Fd]3 [DF] [DF]>[DF] [FA]>[Fd] | [Ec]6 [Ec]2 | [EB]3 [EG] [FA]2 [=DF]2 | %12
 E6 ([CA][DB]) | [Ec]3 [DB] [CA]>[EG] [DF]>[DA] | [CE]6 ([CA][=DB]) | [Ec]3 [CA] [DB]2 [DB]2 | %16
 [CA]6 [CE]2 | [DF]3 [EG] [FA]>[GB] [FA]>[DF] | [CE]6 ([CA][DB]) | [Ec]3 [Ec] [Ed]2 [Ec]2 | %20
 [EB]6 ([CA][DB]) | [Ec]3 [DB] [CA]>[EG] [DF]>[DA] | [CE]6 ([CA][=DB]) | [Ec]3 [CA] [DB]2 [DB]2 | %24
 [CA]6 |] %25
V:2
 x2 | x8 | x8 | x6 E2 | x8 | x8 | x8 | x8 | x8 | x8 | x8 | x8 | E6 x2 | x8 | x8 | x8 | x8 | x8 | %18
 x8 | x8 | x8 | x8 | x8 | x8 | x6 |] %25
V:3
 [A,,A,]2 | [A,,A,]3 [A,,A,] [A,,A,]>[A,,A,] [A,,A,]>[A,,F,] | [A,,A,]6 [A,,A,]2 | %3
 [E,G,]3 [E,A,] [E,G,]2 [G,B,]2 | A,6 [A,,A,]2 | [A,,A,]3 [A,,A,] [A,,A,]>[A,,A,] [A,,A,]>[A,,F,] | %6
 [A,,A,]6 [F,A,]2 | [E,A,]3 [E,A,] [E,G,]2 [E,G,]2 | [A,,A,]6 [A,,A,]2 | %9
 [D,A,]3 [D,A,] [D,A,]>[D,A,] [D,A,]>[D,A,] | [A,,A,]6 [A,,A,]2 | %11
 [B,,G,]3 [B,,B,] [B,,B,]2 [B,,A,]2 | [E,G,]6 [A,,A,]2 | %13
 [A,,A,]3 [A,,A,] [A,,A,]>[A,,A,] [A,,A,]>[A,,F,] | [A,,A,]6 [F,A,]2 | %15
 [E,A,]3 [E,A,] [E,G,]2 [E,G,]2 | [A,,A,]6 [A,,A,]2 | [D,A,]3 [D,A,] [D,A,]>[D,A,] [D,A,]>[D,A,] | %18
 [A,,A,]6 [A,,A,]2 | A,3 A, [G,B,]2 A,2 | [E,G,]6 [A,,A,]2 | %21
 [A,,A,]3 [A,,A,] [A,,A,]>[A,,A,] [A,,A,]>[A,,F,] | [A,,A,]6 [F,A,]2 | %23
 [E,A,]3 [E,A,] [E,G,]2 [E,G,]2 | [A,,A,]6 |] %25
V:4
 x2 | x8 | x8 | x8 | A,6 x2 | x8 | x8 | x8 | x8 | x8 | x8 | x8 | x8 | x8 | x8 | x8 | x8 | x8 | x8 | %19
 A,3 A, x A,2 x | x8 | x8 | x8 | x8 | x6 |] %25

